public/img/marker/Vault63Marker.svg

<svg height="22.35" width="23.25" xmlns="http://www.w3.org/2000/svg"><radialGradient cx="0" cy="0" gradientTransform="translate(-.05) scale(.0118)" gradientUnits="userSpaceOnUse" id="a" r="819.2" spreadMethod="pad"><stop offset="0" stop-color="#f8df89"/><stop offset="1" stop-color="#f5cb5b"/></radialGradient><radialGradient cx="0" cy="0" gradientTransform="translate(-2.85 1.45) scale(.0026)" gradientUnits="userSpaceOnUse" id="b" r="819.2" spreadMethod="pad"><stop offset="0" stop-color="#f8df89"/><stop offset="1" stop-color="#f5cb5b"/></radialGradient><g fill-rule="evenodd"><path d="M14.25 2q1-.05 1.25 1.05l.1.55 1.45.55.4-.3q.5-.35.8-.3.45-.05.95.45l1.9 1.85V5.8q.8.75.2 1.65V7.4l-.3.5.6 1.45.65.2h-.05q.95.1 1 1.15l.05 2.7q0 1-1 1.25l-.6.15-.55 1.45.25.45v-.05q.65.95-.2 1.75l-1.75 1.8q-.4.4-.95.4l-.65-.2-.55-.3-1.5.65-.2.6h-.05q-.25.7-.85.9l.15-.05-.3.15h-3.25l-.2-.1q-.65-.2-.85-.95l-.15-.55-1.6-.65-.5.25-.7.25-.6-.15-.05-.05-.3-.2-.1-.05v-.05h-.1l.1-.05-1.6-1.65q-.8-.8-.2-1.7l.3-.45-.65-1.45-.55-.15q-1.05-.25-1-1.25l.05-2.7q-.05-1 .9-1.15l.3-.1h.05l.35-.05.6-1.5-.3-.45q-.55-.9.2-1.6L6.55 4q.45-.5.9-.45.5 0 .85.3l.4.3 1.45-.55.1-.6v.05q.2-1.1 1.2-1.05h2.8"/><path d="M11.75 0q1-.05 1.25 1.05l.1.55 1.45.55.4-.3q.5-.35.8-.3.45-.05.95.45l1.9 1.85V3.8q.8.75.2 1.65V5.4l-.3.5.6 1.45.35.1.3.1h-.05q.95.1 1 1.15l.05 2.7q0 1-1 1.25l-.6.15-.55 1.45.25.45v-.05q.65.95-.2 1.75l-1.75 1.8q-.4.4-.95.4l-.65-.2-.55-.3-1.5.65-.2.6H13q-.25.7-.85.9l.15-.05-.3.15H8.75l-.1-.05-.1-.05q-.65-.2-.85-.95l-.15-.55-1.6-.65-.5.25-.7.25-.6-.15-.05-.05-.3-.2-.1-.05v-.05h-.1l.1-.05-1.6-1.65q-.8-.8-.2-1.7l.3-.45-.65-1.45-.55-.15q-1.05-.25-1-1.25l.05-2.7Q0 7.65 1 7.55H.95l.3-.1h.05l.35-.05.6-1.5-.3-.45q-.55-.9.2-1.6L4.05 2q.45-.5.9-.45l.85.3.4.3 1.45-.55.1-.6v.05q.2-1.1 1.2-1.05h2.8"/><path d="M-2.45-4.4q-1.3 0-2.1.95t-.8 2.65V.95q0 1.65.7 2.55.7.85 1.85.85 1.05 0 1.75-.8.65-.8.65-2.1t-.5-2.1q-.55-.8-1.45-.8l-.75.1-.6.45q0-1.05.35-1.6.3-.55.9-.55l.6.05.5.2.3-1.25-.65-.25-.75-.1m4.3 3.65v1.3h.8q.5 0 .7.3l.2 1-.2.85q-.25.35-.65.35-.35 0-.6-.3l-.2-.85H.25q0 1.25.7 1.85.7.6 1.7.6 1.15 0 1.85-.65.7-.65.7-1.85L4.9.65 4-.15l.8-.75.3-1.05q0-1.2-.65-1.85-.65-.6-1.8-.6-1 0-1.65.65-.65.6-.65 1.7h1.6l.25-.75.5-.25q.4 0 .55.3l.2.8q0 .6-.2.9-.15.3-.6.3h-.8m3.4-6.8h.15l.15.1 1.9 1.85.05.35-.5.8-.05.4.85 1.9q.1.25.35.3l.95.2.15.2.05 2.7-.2.25-1 .2-.25.25q-.25 1.2-.8 2-.05.25.05.35l.45.75q.15.3-.05.5L5.75 7.3l-.15.1h-.05l-.15-.05-.85-.45-.15-.05-.05-.05-.05.05-.15.05q-1.05.6-1.95.8l-.3.3-.25.9-.2.25h-3l-.2-.25L-2 8l-.3-.3-1.95-.8-.1-.05-.1-.05-.05.05-.15.05-.8.45-.2.05-.2-.1-1.75-1.75q-.2-.2-.05-.5l.5-.75v-.35q-.6-1-.8-2l-.25-.25-1-.2-.2-.25.05-2.7.15-.2 1-.2.3-.3.85-1.9v-.4l-.55-.8.05-.35 1.9-1.85.1-.05.2-.05.15.05.8.55v.05l.15.05h.05l.05-.05q.95-.5 2.05-.8l.25-.3.2-.95.2-.2h2.8l.2.2.2.95.3.3q1.1.3 2 .8l.1.05h.05l.15-.1.75-.55.15-.05" fill="url(#a)" transform="translate(10.4 10.15)"/><path d="M-2.8-.15q.35 0 .55.4l.2 1.2-.2 1.15-.55.45q-.45 0-.65-.55L-3.7.95V.3l.35-.35.55-.1" fill="url(#b)" transform="translate(10.4 10.15)"/></g></svg>

<?xml version="1.0" encoding="UTF-8" standalone="no"?>
<svg xmlns:xlink="http://www.w3.org/1999/xlink" height="22.35px" width="23.25px" xmlns="http://www.w3.org/2000/svg">
  <g transform="matrix(1.0, 0.0, 0.0, 1.0, 10.4, 10.15)">
    <use height="22.35" transform="matrix(1.0, 0.0, 0.0, 1.0, -10.4, -10.15)" width="23.25" xlink:href="#shape0"/>
  </g>
  <defs>
    <g id="shape0" transform="matrix(1.0, 0.0, 0.0, 1.0, 10.4, 10.15)">
      <path d="M3.85 -8.15 Q4.85 -8.2 5.1 -7.1 L5.2 -6.55 6.65 -6.0 7.05 -6.3 Q7.55 -6.65 7.85 -6.6 8.3 -6.65 8.8 -6.15 L10.7 -4.3 10.7 -4.35 Q11.5 -3.6 10.9 -2.7 L10.9 -2.75 10.6 -2.25 11.2 -0.8 11.85 -0.6 11.8 -0.6 Q12.75 -0.5 12.8 0.55 L12.85 3.25 Q12.85 4.25 11.85 4.5 L11.25 4.65 10.7 6.1 10.95 6.55 10.95 6.5 Q11.6 7.45 10.75 8.25 L9.0 10.05 Q8.6 10.45 8.05 10.45 L7.4 10.25 6.85 9.95 5.35 10.6 5.15 11.2 5.1 11.2 Q4.85 11.9 4.25 12.1 L4.4 12.05 4.1 12.2 0.85 12.2 0.65 12.1 Q0.0 11.9 -0.2 11.15 L-0.35 10.6 -1.95 9.95 -2.45 10.2 -3.15 10.45 -3.75 10.3 -3.8 10.25 -4.1 10.05 -4.2 10.0 -4.2 9.95 -4.3 9.95 -4.2 9.9 -5.8 8.25 Q-6.6 7.45 -6.0 6.55 L-5.7 6.1 -6.35 4.65 -6.9 4.5 Q-7.95 4.25 -7.9 3.25 L-7.85 0.55 Q-7.9 -0.45 -6.95 -0.6 L-6.65 -0.7 -6.6 -0.7 -6.25 -0.75 -5.65 -2.25 -5.95 -2.7 Q-6.5 -3.6 -5.75 -4.3 L-3.85 -6.15 Q-3.4 -6.65 -2.95 -6.6 -2.45 -6.6 -2.1 -6.3 L-1.7 -6.0 -0.25 -6.55 -0.15 -7.15 -0.15 -7.1 Q0.05 -8.2 1.05 -8.15 L3.85 -8.15" fill="#000000" fill-rule="evenodd" stroke="none"/>
      <path d="M1.35 -10.15 Q2.35 -10.2 2.6 -9.1 L2.7 -8.55 4.15 -8.0 4.55 -8.3 Q5.05 -8.65 5.35 -8.6 5.8 -8.65 6.3 -8.15 L8.2 -6.3 8.2 -6.35 Q9.0 -5.6 8.4 -4.7 L8.4 -4.75 8.1 -4.25 8.7 -2.8 9.05 -2.7 9.35 -2.6 9.3 -2.6 Q10.25 -2.5 10.3 -1.45 L10.35 1.25 Q10.35 2.25 9.35 2.5 L8.75 2.65 8.2 4.1 8.45 4.55 8.45 4.5 Q9.1 5.45 8.25 6.25 L6.5 8.05 Q6.1 8.45 5.55 8.45 L4.9 8.25 4.35 7.95 2.85 8.6 2.65 9.2 2.6 9.2 Q2.35 9.9 1.75 10.1 L1.9 10.05 1.6 10.2 -1.65 10.2 -1.75 10.15 -1.85 10.1 Q-2.5 9.9 -2.7 9.15 L-2.85 8.6 -4.45 7.95 -4.95 8.2 -5.65 8.45 -6.25 8.3 -6.3 8.25 -6.6 8.05 -6.7 8.0 -6.7 7.95 -6.8 7.95 -6.7 7.9 -8.3 6.25 Q-9.1 5.45 -8.5 4.55 L-8.2 4.1 -8.85 2.65 -9.4 2.5 Q-10.45 2.25 -10.4 1.25 L-10.35 -1.45 Q-10.4 -2.5 -9.4 -2.6 L-9.45 -2.6 -9.15 -2.7 -9.1 -2.7 -8.75 -2.75 -8.15 -4.25 -8.45 -4.7 Q-9.0 -5.6 -8.25 -6.3 L-6.35 -8.15 Q-5.9 -8.65 -5.45 -8.6 L-4.6 -8.3 -4.2 -8.0 -2.75 -8.55 -2.65 -9.15 -2.65 -9.1 Q-2.45 -10.2 -1.45 -10.15 L1.35 -10.15" fill="#000000" fill-rule="evenodd" stroke="none"/>
      <path d="M-2.45 -4.4 Q-3.75 -4.4 -4.55 -3.45 -5.35 -2.5 -5.35 -0.8 L-5.35 0.95 Q-5.35 2.6 -4.65 3.5 -3.95 4.35 -2.8 4.35 -1.75 4.35 -1.05 3.55 -0.4 2.75 -0.4 1.45 -0.4 0.15 -0.9 -0.65 -1.45 -1.45 -2.35 -1.45 L-3.1 -1.35 -3.7 -0.9 Q-3.7 -1.95 -3.35 -2.5 -3.05 -3.05 -2.45 -3.05 L-1.85 -3.0 -1.35 -2.8 -1.05 -4.05 -1.7 -4.3 -2.45 -4.4 M1.85 -0.75 L1.85 0.55 2.65 0.55 Q3.15 0.55 3.35 0.85 L3.55 1.85 3.35 2.7 Q3.1 3.05 2.7 3.05 2.35 3.05 2.1 2.75 L1.9 1.9 0.25 1.9 Q0.25 3.15 0.95 3.75 1.65 4.35 2.65 4.35 3.8 4.35 4.5 3.7 5.2 3.05 5.2 1.85 L4.9 0.65 4.0 -0.15 4.8 -0.9 5.1 -1.95 Q5.1 -3.15 4.45 -3.8 3.8 -4.4 2.65 -4.4 1.65 -4.4 1.0 -3.75 0.35 -3.15 0.35 -2.05 L1.95 -2.05 2.2 -2.8 2.7 -3.05 Q3.1 -3.05 3.25 -2.75 L3.45 -1.95 Q3.45 -1.35 3.25 -1.05 3.1 -0.75 2.65 -0.75 L1.85 -0.75 M5.25 -7.55 L5.4 -7.55 5.55 -7.45 7.45 -5.6 7.5 -5.25 7.0 -4.45 6.95 -4.05 7.8 -2.15 Q7.9 -1.9 8.15 -1.85 L9.1 -1.65 9.25 -1.45 9.3 1.25 9.1 1.5 8.1 1.7 7.85 1.95 Q7.6 3.15 7.05 3.95 7.0 4.2 7.1 4.3 L7.55 5.05 Q7.7 5.35 7.5 5.55 L5.75 7.3 5.6 7.4 5.55 7.4 5.4 7.35 4.55 6.9 4.4 6.85 4.35 6.8 4.3 6.85 4.15 6.9 Q3.1 7.5 2.2 7.7 L1.9 8.0 1.65 8.9 1.45 9.15 -1.55 9.15 -1.75 8.9 -2.0 8.0 -2.3 7.7 -4.25 6.9 -4.35 6.85 -4.45 6.8 -4.5 6.85 -4.65 6.9 -5.45 7.35 -5.65 7.4 -5.85 7.3 -7.6 5.55 Q-7.8 5.35 -7.65 5.05 L-7.15 4.3 -7.15 3.95 Q-7.75 2.95 -7.95 1.95 L-8.2 1.7 -9.2 1.5 -9.4 1.25 -9.35 -1.45 -9.2 -1.65 -8.2 -1.85 -7.9 -2.15 -7.05 -4.05 -7.05 -4.45 -7.6 -5.25 -7.55 -5.6 -5.65 -7.45 -5.55 -7.5 -5.35 -7.55 -5.2 -7.5 -4.4 -6.95 -4.4 -6.9 -4.25 -6.85 -4.2 -6.85 -4.15 -6.9 Q-3.2 -7.4 -2.1 -7.7 L-1.85 -8.0 -1.65 -8.95 -1.45 -9.15 1.35 -9.15 1.55 -8.95 1.75 -8.0 2.05 -7.7 Q3.15 -7.4 4.05 -6.9 L4.15 -6.85 4.2 -6.85 4.35 -6.95 5.1 -7.5 5.25 -7.55" fill="url(#gradient0)" fill-rule="evenodd" stroke="none"/>
      <path d="M-2.8 -0.15 Q-2.45 -0.15 -2.25 0.25 L-2.05 1.45 -2.25 2.6 -2.8 3.05 Q-3.25 3.05 -3.45 2.5 L-3.7 0.95 -3.7 0.3 -3.35 -0.05 -2.8 -0.15" fill="url(#gradient1)" fill-rule="evenodd" stroke="none"/>
    </g>
    <radialGradient cx="0" cy="0" gradientTransform="matrix(0.0118, 0.0, 0.0, 0.0118, -0.05, 0.0)" gradientUnits="userSpaceOnUse" id="gradient0" r="819.2" spreadMethod="pad">
      <stop offset="0.0" stop-color="#f8df89"/>
      <stop offset="1.0" stop-color="#f5cb5b"/>
    </radialGradient>
    <radialGradient cx="0" cy="0" gradientTransform="matrix(0.0026, 0.0, 0.0, 0.0026, -2.85, 1.45)" gradientUnits="userSpaceOnUse" id="gradient1" r="819.2" spreadMethod="pad">
      <stop offset="0.0" stop-color="#f8df89"/>
      <stop offset="1.0" stop-color="#f5cb5b"/>
    </radialGradient>
  </defs>
</svg>
